X: 6122
T: Captain Keeler
R: reel
M: 4/4
K: Gminor
F|B2d/c/B fBbB|ABcB AFd/c/A|B2d/c/B fBbB|AFd/c/A BGGA|
B2d/c/B fBbB|ABcB AFd/c/A|Bcde fgfd|c/B/AFA BGGF||
DGBG dGBG|DGBG AFcA|DGBG dGBG|cAFA BGGF|
DGBG dGBG|d/c/ABG AFd/c/A|Bcde fgfd|cAFA BGGA|

